!!!!SEGMENT: pl-kk--kk-i-385--005_anonim-tractus.krn
!!!id: 17xx:1985
!!!COM: Anonim
!!!OTL: Tractus
!!!PDT:
!!!SMS-siglum: PL-Kk
!!!SMS-shelfmark: Kk.I.385
!!!NIFC-rismID: 1001143566
!!!URL-scan: http://repozytorium.nifc.pl/skany/pl-kk-nut--i-385
!!!ONB-nifc: UWAGA: numeracja zgodna z numeracją utworów w źródle
!!!SMS-variant:
!!!SMS-altvar:
**kern	**text	**kern	**text	**kern	**text
*part3	*part3	*part2	*part2	*part1	*part1
*staff3	*staff3	*staff2	*staff2	*staff1	*staff1
*I"Tenore.	*	*I"Alto.	*	*I"Soprano.	*
*I'T	*	*I'A	*	*I'S	*
*clefC4	*	*clefC3	*	*clefC1	*
*k[b-]	*	*k[b-]	*	*k[b-]	*
*M3/2	*	*M3/2	*	*M3/2	*
=1	=1	=1	=1	=1	=1
*all\right	*	*all\right	*	*all\right	*
*2\right	*	*2\right	*	*2\right	*
!LO:TX:a:t=5.tum	!	!LO:TX:a:t=5.timo	!	!LO:TX:a:t=5.tum	!
!LO:TX:a:t=Tractus.	!	!LO:TX:a:t=Tractus.	!	!LO:TX:a:t=Tractus.	!
1A	Gau-	1f	Gau-	1cc	Gau-
2c\	-de	2g\	-de	2cc\	-de
=2	=2	=2	=2	=2	=2
2.A\	gau-	4a\	gau-	2.cc\	gau-
.	.	4g\	.	.	.
.	.	4a\	.	.	.
4B-\	.	4g\	.	4b-\	.
4c\	.	2f\	.	4a\	.
4d\	.	.	.	4g\	.
=3	=3	=3	=3	=3	=3
2e\	.	2e\	.	2g\	.
2c\	-de	2e\	-de	2g\	-de
2c\	Ma-	2f\	Ma-	2cc\	Ma-
=4	=4	=4	=4	=4	=4
1B-	-ri-	1f	-ri-	1dd	-ri-
[2c\	-a	2f\	-a	[2cc\	-a
=5	=5	=5	=5	=5	=5
2c\]	.	1f	vir-	2cc\]	.
1G	vir-	.	.	1b-	vir-
.	.	2e\	.	.	.
!	!	!LO:LB:g=original	!	!	!
=6	=6	=6	=6	=6	=6
2A\	-go	2f\	-go	2a\	-go
2c\	gau-	2a\	gau-	2f\	gau-
2A\	-de	2f\	-de	2a\	-de
!LO:LB:g=original	!	!	!	!LO:LB:g=original	!
=7	=7	=7	=7	=7	=7
1G	gau-	4g\	gau-	1.cc	gau-
.	.	4f\	.	.	.
.	.	4e\	.	.	.
.	.	4f\	.	.	.
2c\	-de	4g\	.	.	.
.	.	4e\	.	.	.
=8	=8	=8	=8	=8	=8
4A\	gau-	2.f\	.	2.cc\	.
4G\	.	.	.	.	.
4A\	.	.	.	.	.
4B-\	.	4g\	.	4b-\	.
4c\	.	4f\	.	4a\	.
4d\	.	8g\L	.	4g\	.
.	.	8f\J	.	.	.
=9	=9	=9	=9	=9	=9
2e\	.	2e\	.	2g\	.
2c\	-de	2c\	-de	2e/	-de
2c\	Ma-	2g\	Ma-	2cc\	Ma-
=10	=10	=10	=10	=10	=10
2c\	-ri-	2f\	-ri-	2a\	-ri-
2Bn\	.	1g	-a	2bn\	.
2G/	-a	.	.	2cc\	-a
!	!	!LO:LB:g=original	!	!	!
=11	=11	=11	=11	=11	=11
2c\	vir-	2g\	vir-	1cc	vir-
1d	.	1f	.	.	.
.	.	.	.	2bn\	.
=12	=12	=12	=12	=12	=12
2e\	-go	2e\	-go	2cc\	-go
2c\	cun-	4e\	cun-	2ee\	cun-
.	.	4f\	.	.	.
2c\	-ctas	4g\	.	2ee\	-ctus
.	.	4e\	-ctas	.	.
!LO:LB:g=original	!	!	!	!LO:LB:g=original	!
=13	=13	=13	=13	=13	=13
!LO:SIC:v:l:s=hae-	!	!LO:SIC:v:l:s=hae-	!	!LO:SIC:v:l:s=hae-	!
2.c\	he-	2.a\	he-	2.ff\	he-
4c\	-re-	4a\	-re-	4ff\	-re-
2c\	-ses	2a\	-ses	2ff\	-ses
=14	=14	=14	=14	=14	=14
2A\	so-	2a\	so-	2cc\	so-
2B-X\	-la	2g\	-la	2b-X\	-la
2c\	in-	2f\	in-	2a\	in-
=15	=15	=15	=15	=15	=15
2d\	-te-	1f	-te-	2g\	-te-
1c	-re-	.	.	1g	-re-
.	.	2e\	-re-	.	.
=16	=16	=16	=16	=16	=16
2c\	-mi-	2f\	-mi-	2a\	-mi-
2c\	-sti	2f\	-sti	2a\	-sti
!LO:SIC:v:l:s=quae	!	!LO:SIC:v:l:s=quae	!	!LO:SIC:v:l:s=quae	!
2d\	que	2f\	que	2a\	que
!	!	!LO:LB:g=original	!	!	!
=17	=17	=17	=17	=17	=17
1e	Ga-	1g	Ga-	1g	Ga-
2A\	-bri-	2e\	-bri-	2a\	-bri-
=18	=18	=18	=18	=18	=18
2d\	-e-	2f\	-e-	2a\	-e-
2A\	-lis	2f\	-lis	2a\	-lis
2A\	Ar-	2a\	Ar-	2ee\	Ar-
!LO:LB:g=original	!	!	!	!LO:LB:g=original	!
=19	=19	=19	=19	=19	=19
!	!	!LO:SIC:v:l:s=-chan-	!	!LO:SIC:v:l:s=-chan-	!
1B-	-han-	1a	-han-	1dd	-han-
2B-\	-ge-	2g\	-ge-	2dd\	-ge-
=20	=20	=20	=20	=20	=20
2c#X\	-li	2a\	-li	2cc#X\	-li
2A\	dic-	2e\	dic-	2cc#\	dic-
2A\	-tis	2e\	-tis	2cc#\	-tis
=21	=21	=21	=21	=21	=21
1G	cre-	1.f	cre-	1.dd	cre-
2d\	-di-	.	.	.	.
=22	=22	=22	=22	=22	=22
1A	-di-	1.f	-di-	1dd	.
2d\	.	.	.	2a\	-di-
=23	=23	=23	=23	=23	=23
1d	-sti	1.e	-dis-	1b-	-dis-
2c\	dum	.	.	2a\	.
=24	=24	=24	=24	=24	=24
1d	Vir-	1f	-ti	1a	-ti
2A\	-go	2f\	dum	2dd\	dum
!	!	!LO:LB:g=original	!	!	!
=25	=25	=25	=25	=25	=25
1B-X	De-	1g	vir-	1dd	vir-
2B-\	-um	2g\	-go	2dd\	-go
!LO:LB:g=original	!	!	!	!LO:LB:g=original	!
=26	=26	=26	=26	=26	=26
!LO:TX:b:t=P:problem:pokreślony tekst	!	!	!	!	!
2c\	De-	2g\	De-	2ee\	De-
2c\	-um	2g\	-um	2ee\	-um
2c\	et	2g\	et	2ee\	et
=27	=27	=27	=27	=27	=27
2.c\	ho-	2.a\	ho-	2.ff\	ho-
4c\	-mi-	4a\	-mi-	4ff\	-mi-
2c\	-nem	2a\	-nem	2ff\	-nem
=28	=28	=28	=28	=28	=28
4A\	ge-	2.a\	ge-	2.cc\	ge-
4G\	.	.	.	.	.
4A\	.	.	.	.	.
4B-\	.	4g\	.	4b-\	.
4c\	.	2f\	.	4a\	.
4d\	.	.	.	4g\	.
=29	=29	=29	=29	=29	=29
4e\	.	1e	.	1g	.
4f\	.	.	.	.	.
4e\	.	.	.	.	.
4d\	.	.	.	.	.
4c\	.	4f\	.	4a\	.
4B-X\	.	4g\	-nu-	4b-\	.
=30	=30	=30	=30	=30	=30
1A	.	1a	-i-	1cc	.
2A\	-nu-	2f\	-sti	2cc\	-nu-
!LO:LB:g=original	!	!LO:LB:g=original	!	!	!
=31	=31	=31	=31	=31	=31
1G	-i-	1.g	ge-	1.b-	-is-
2c\	.	.	.	.	.
!	!	!	!	!LO:LB:g=original	!
=32	=32	=32	=32	=32	=32
1c	-sti	1a	.	1a	-ti
2c\	ge-	2f\	.	2a\	ge-
=33	=33	=33	=33	=33	=33
2d\	-nu-	2f\	-nu-	2g\	-nu-
1c	-i-	2f\	-is-	1g	-is-
.	.	2e\	.	.	.
=34	=34	=34	=34	=34	=34
2c\	-sti	2f\	-ti	2a\	-ti
2c\	et	2c\	et	2f\	et
2c\	post	2g\	post	2cc\	post
=35	=35	=35	=35	=35	=35
2A\	par-	2a\	par-	2cc\	par-
2c\	.	2g\	.	1dd	-tum
2Bn\	-tum	2f\	-tum	.	.
=36	=36	=36	=36	=36	=36
1c	vir-	1e	vir-	1ee	vir-
2c\	-go	2e\	-go	2ee\	-go
=37	=37	=37	=37	=37	=37
2e\	in-	2g\	in-	2ee\	in-
4e\	-vi-	4e\	-vi-	4gg\	-vi-
4d\	.	4f\	.	4ff\	.
!LO:LB:g=original	!	!LO:LB:g=original	!	!	!
2c\	-o-	4g\	-o-	4ee\	.
.	.	4a\	.	4dd\	-o-
!	!	!	!	!LO:LB:g=original	!
=38	=38	=38	=38	=38	=38
4Bn\	-la-	1.g	-la	1.dd	-la
4A\	.	.	.	.	.
4B\	.	.	.	.	.
4c\	.	.	.	.	.
4d\	.	.	.	.	.
4B\	.	.	.	.	.
=39	=39	=39	=39	=39	=39
2.c\	.	2.g\	per-	2.ee\	in-
4c\	-ta	4e\	.	4ee\	-vi-
2c\	per-	2g\	.	2ee\	-o-
=40	=40	=40	=40	=40	=40
2c\	-man-	2a\	-man-	2dd\	-la-
2c\	-si-	1g	-si-	1dd	-ta
2Bn\	.	.	.	.	.
=41	=41	=41	=41	=41	=41
2c\	-sti	2g\	-sti	2ee\	per-
2c\	De-	2g\	De-	2cc\	.
!	!	!	!	!LO:SIC:v:l:s=-man-	!
2G/	-i	2g\	-i	2cc\	-ma-
=42	=42	=42	=42	=42	=42
2.A\	ge-	2.f\	ge-	2.a\	-si-
4A\	-ni-	4f\	-ni-	4a\	.
2A\	-trix	2f\	-trix	2a\	-sti
!LO:LB:g=original	!	!	!	!	!
=43	=43	=43	=43	=43	=43
2A\	in-	1.r	.	1.r	.
2G/	.	.	.	.	.
2A\	-ter-	.	.	.	.
!	!	!LO:LB:g=original	!	!LO:LB:g=original	!
=44	=44	=44	=44	=44	=44
1F	-ce-	2d\	in-	2f/	in-
.	.	2c\	.	2e/	.
2F/	-de	2d\	-ter-	2f/	-ter-
=45	=45	=45	=45	=45	=45
2B-\	in-	1B-	-ce-	1d	-ce-
2A\	.	.	.	.	.
2B-\	-ter-	2B-/	-de	2d/	-de
=46	=46	=46	=46	=46	=46
1G	-ce-	2e\	in-	2g\	in-
.	.	2d\	.	2f/	.
2G/	-de	2e\	-ter-	2g\	-ter-
=47	=47	=47	=47	=47	=47
2c\	in-	1c	-ce-	1e	-ce-
2B-\	.	.	.	.	.
2c\	-ter-	2c\	-de	2e/	-de
=48	=48	=48	=48	=48	=48
1A	-ce-	2f\	in-	2a\	in-
.	.	2e\	.	2g\	.
2A\	-de	2f\	-ter-	2a\	-ter-
!LO:LB:g=original	!	!	!	!	!
=49	=49	=49	=49	=49	=49
2d\	in-	1d	-ce-	1f	-ce-
2c\	.	.	.	.	.
2d\	-ter-	2d\	-de	2f/	-de
!	!	!	!	!LO:LB:g=original	!
=50	=50	=50	=50	=50	=50
1B-	-ce-	2g\	in-	2b-\	in-
.	.	2f\	.	2a\	.
!	!	!LO:LB:g=original	!	!	!
2B-\	-de	2g\	-ter-	2b-\	-ter-
=51	=51	=51	=51	=51	=51
!	!	!LO:N:vis=1.	!	!	!
2e\	in-	1e	-ce-	1g	-ce-
2d\	.	.	.	.	.
2e\	-ter-	2e\	-de	2g\	-de
=52	=52	=52	=52	=52	=52
1c	-ce-	2f\	pro	1.a	pro
.	.	2e\	no-	.	.
2A\	-de	2f\	-bis	.	.
=53	=53	=53	=53	=53	=53
1A	pro	1a	in-	1cc	no-
2B-\	.	2g\	-ter-	2b-\	.
=54	=54	=54	=54	=54	=54
1c	no-	1f	-ce-	1a	-bis
2A\	.	2f\	-de	2a\	pro
!LO:LB:g=original	!	!	!	!	!
=55	=55	=55	=55	=55	=55
2d\	-bis	2f\	pro	2g\	no-
1c	pro	2f\	no-	1g	.
.	.	2e\	.	.	.
=56	=56	=56	=56	=56	=56
2c\	no-	1f	-bis	1a	-bis
1c	.	.	.	.	.
.	.	2f\	pro	2cc\	pro
!	!	!LO:LB:g=original	!	!LO:LB:g=original	!
=57	=57	=57	=57	=57	=57
1.B-	.	1.f	no-	1.dd	no-
=58	=58	=58	=58	=58	=58
!LO:N:vis=0	!	!LO:N:vis=0	!	!LO:N:vis=0	!
1.A	-bis.	1.f	-bis.	1.cc	-bis.
==	==	==	==	==	==
*-	*-	*-	*-	*-	*-
!!!system-decoration: [(s1,s2,s3)]
!!!ENC: Andrzej Kubiczek
!!!END: 2021-02-09
!!!ENC: Marta Lawrence
!!!END: 2021-02-14
